X: 217b
T: The Crooked Road to Dublin
T:Rover Version
R:reel
M:4/4
L:1/8
K:G
G2G2 FGAF|G2FG AdcA|G2G2 FGAg|fdcA dBcA|
G2G2 FGAF|G2FG AdcA|G2G2 FGAg|fdcA d2Bc||
d~g3 fgaf|d~g3 agfe|d~g3 fgag|fdcA d2Bc|
d~g3 fgaf|d~g3 a2ga|bgaf gbag|fdcA d2cA||


